src/extras-unicode/symbol-other/2B23.svg

<svg id="emoji" viewBox="0 0 72 72" xmlns="http://www.w3.org/2000/svg">
  <g id="grid">
    <path fill="#b3b3b3" d="M68,4V68H4V4H68m4-4H0V72H72V0Z"/>
    <path fill="none" stroke="#00a5ff" stroke-miterlimit="10" stroke-width="0.1" d="M12.923,10.9583H59.0769A1.9231,1.9231,0,0,1,61,12.8814V59.0352a1.9231,1.9231,0,0,1-1.9231,1.9231H12.9231A1.9231,1.9231,0,0,1,11,59.0352V12.8813A1.923,1.923,0,0,1,12.923,10.9583Z"/>
    <rect x="16" y="4" rx="2.2537" width="40" height="64" fill="none" stroke="#00a5ff" stroke-miterlimit="10" stroke-width="0.1"/>
    <rect x="16" y="4" rx="2.2537" width="40" height="64" transform="translate(72) rotate(90)" fill="none" stroke="#00a5ff" stroke-miterlimit="10" stroke-width="0.1"/>
    <circle cx="36" cy="36" r="29" fill="none" stroke="#00a5ff" stroke-miterlimit="10" stroke-width="0.1"/>
  </g>
  <g id="color"/>
  <g id="line">
    <path fill="#000000" stroke="#000000" stroke-width="2" d="M7.577,37 C7.22,36.381 7.22,35.619 7.577,35 L20.923,11.885 C21.28,11.266 21.94,10.885 22.655,10.885 L49.345,10.885 C50.06,10.885 50.72,11.266 51.077,11.885 L64.423,35 C64.78,35.619 64.78,36.381 64.423,37 L51.077,60.115 C50.72,60.734 50.06,61.115 49.345,61.115 L22.655,61.115 C21.94,61.115 21.28,60.734 20.923,60.115 L7.577,37 z"/>
  </g>
</svg>

<svg viewBox="0 0 72 72" xmlns="http://www.w3.org/2000/svg"><path fill="#b3b3b3" d="M68 4v64H4V4h64m4-4H0v72h72V0z"/><path fill="none" stroke="#00a5ff" stroke-miterlimit="10" stroke-width=".1" d="M12.923 10.958h46.154A1.923 1.923 0 0161 12.881v46.154a1.923 1.923 0 01-1.923 1.923H12.923A1.923 1.923 0 0111 59.035V12.881a1.923 1.923 0 011.923-1.923z"/><rect x="16" y="4" rx="2.254" width="40" height="64" fill="none" stroke="#00a5ff" stroke-miterlimit="10" stroke-width=".1"/><rect x="16" y="4" rx="2.254" width="40" height="64" transform="rotate(90 36 36)" fill="none" stroke="#00a5ff" stroke-miterlimit="10" stroke-width=".1"/><circle cx="36" cy="36" r="29" fill="none" stroke="#00a5ff" stroke-miterlimit="10" stroke-width=".1"/><path d="M7.577 37a2.001 2.001 0 010-2l13.346-23.115c.357-.619 1.017-1 1.732-1h26.69c.715 0 1.375.381 1.732 1L64.423 35a2.001 2.001 0 010 2L51.077 60.115c-.357.619-1.017 1-1.732 1h-26.69a1.999 1.999 0 01-1.732-1L7.577 37z" stroke-linecap="round" stroke-miterlimit="10" stroke-width="6" stroke="#fff" fill="none" stroke-linejoin="round"/><path stroke="#000" stroke-width="2" d="M7.577 37a2.001 2.001 0 010-2l13.346-23.115c.357-.619 1.017-1 1.732-1h26.69c.715 0 1.375.381 1.732 1L64.423 35a2.001 2.001 0 010 2L51.077 60.115c-.357.619-1.017 1-1.732 1h-26.69a1.999 1.999 0 01-1.732-1L7.577 37z"/></svg>
